priv/static/images/graduation-hat.svg

<svg
  width="220"
  height="160"
  viewBox="0 0 332 242"
  fill="none"
  xmlns="http://www.w3.org/2000/svg"
>
  <path
    opacity="0.1"
    d="M165.879 2.04785L247.795 34.6985L83.9633 104.334L2.04761 67.4938L165.879 2.04785Z"
    fill="#01E4A6"
  />
  <path
    opacity="0.1"
    fill-rule="evenodd"
    clip-rule="evenodd"
    d="M73.1838 179.56L78.2731 168.378L165.879 208.25L253.485 168.378L258.574 179.56L165.879 221.749L73.1838 179.56Z"
    fill="#01E4A6"
  />
  <path
    opacity="0.1"
    fill-rule="evenodd"
    clip-rule="evenodd"
    d="M73.1838 155L78.2731 143.818L165.879 183.69L253.485 143.818L258.574 155L165.879 197.189L73.1838 155Z"
    fill="#01E4A6"
  />
  <path
    fill-rule="evenodd"
    clip-rule="evenodd"
    d="M165.555 0.145415C166.042 -0.0489491 166.586 -0.0484535 167.074 0.1468L330.472 65.5927C331.234 65.898 331.74 66.629 331.757 67.4499C331.775 68.2707 331.301 69.0226 330.552 69.3601L167.154 143.041C166.62 143.282 166.009 143.282 165.474 143.043L1.2096 69.3618C0.459184 69.0252 -0.0170124 68.2723 0.000465303 67.45C0.0179431 66.6278 0.525703 65.8958 1.28974 65.5914L165.555 0.145415ZM7.29963 67.6052L166.31 138.929L324.482 67.6051L166.31 4.25254L7.29963 67.6052Z"
    fill="#01E4A6"
  />
  <path
    fill-rule="evenodd"
    clip-rule="evenodd"
    d="M74.6176 123.129C75.2016 122.752 75.9371 122.697 76.5708 122.983L166.308 163.486L255.18 122.986C255.814 122.697 256.551 122.75 257.137 123.127C257.723 123.504 258.077 124.152 258.077 124.849V198.53C258.077 199.331 257.61 200.059 256.881 200.392L167.164 241.422C166.626 241.668 166.007 241.669 165.468 241.425L74.8836 200.395C74.1512 200.063 73.6808 199.334 73.6808 198.53V124.849C73.6808 124.154 74.0335 123.506 74.6176 123.129ZM77.776 128.02V197.209L166.308 237.31L253.982 197.214V128.032L167.161 167.598C166.624 167.843 166.008 167.844 165.47 167.601L77.776 128.02Z"
    fill="#01E4A6"
  />
  <path
    opacity="0.4"
    d="M315.408 73.7058V140.163L294.893 150.421V82.8076L315.408 73.7058Z"
    fill="#01E4A6"
  />
</svg>

<svg xmlns="http://www.w3.org/2000/svg" width="220" height="160" fill="none" viewBox="0 0 332 242"><path fill="#01E4A6" d="m165.879 2.048 81.916 32.65-163.832 69.636-81.915-36.84z" opacity=".1"/><path fill="#01E4A6" fill-rule="evenodd" d="m73.184 179.56 5.09-11.182 87.605 39.872 87.606-39.872 5.089 11.182-92.695 42.189z" clip-rule="evenodd" opacity=".1"/><path fill="#01E4A6" fill-rule="evenodd" d="m73.184 155 5.09-11.182 87.605 39.872 87.606-39.872L258.574 155l-92.695 42.189z" clip-rule="evenodd" opacity=".1"/><path fill="#01E4A6" fill-rule="evenodd" d="M165.555.145a2.05 2.05 0 0 1 1.519.002l163.398 65.446a2.046 2.046 0 0 1 .08 3.767l-163.398 73.681a2.05 2.05 0 0 1-1.68.002L1.21 69.362a2.048 2.048 0 0 1 .08-3.77zM7.3 67.605l159.01 71.324 158.172-71.324L166.31 4.253z" clip-rule="evenodd"/><path fill="#01E4A6" fill-rule="evenodd" d="M74.618 123.129a2.05 2.05 0 0 1 1.953-.146l89.737 40.503 88.872-40.5a2.047 2.047 0 0 1 2.897 1.863v73.681c0 .801-.467 1.529-1.196 1.862l-89.717 41.03a2.05 2.05 0 0 1-1.696.003l-90.584-41.03a2.05 2.05 0 0 1-1.203-1.865v-73.681c0-.695.353-1.343.937-1.72m3.158 4.891v69.189l88.532 40.101 87.674-40.096v-69.182l-86.821 39.566a2.05 2.05 0 0 1-1.691.003z" clip-rule="evenodd"/><path fill="#01E4A6" d="M315.408 73.706v66.457l-20.515 10.258V82.808z" opacity=".4"/></svg>
